svg/fluentui-system-icons/ic_fluent_document_one_page_add_20_filled.svg

<svg width="20" height="20" viewBox="0 0 20 20" fill="none" xmlns="http://www.w3.org/2000/svg">
<path d="M4 4C4 2.89543 4.89543 2 6 2H14C15.1046 2 16 2.89543 16 4V9.20703C15.5232 9.07217 15.02 9 14.5 9C13.681 9 12.9039 9.179 12.2055 9.5C11.8999 9.6405 11.6093 9.8082 11.3369 10H7.5C7.22386 10 7 10.2239 7 10.5C7 10.7761 7.22386 11 7.5 11H10.2572C9.9504 11.3714 9.69148 11.7838 9.48983 12.2278C9.17522 12.9204 9 13.6897 9 14.5C9 14.5587 9.00092 14.6172 9.00275 14.6755C9.04229 15.9368 9.50651 17.0911 10.2572 18H6C4.89543 18 4 17.1046 4 16V4ZM12.5 6H7.5C7.22386 6 7 6.22386 7 6.5C7 6.77614 7.22386 7 7.5 7H12.5C12.7761 7 13 6.77614 13 6.5C13 6.22386 12.7761 6 12.5 6ZM14.5 19C16.9853 19 19 16.9853 19 14.5C19 12.0147 16.9853 10 14.5 10C12.0147 10 10 12.0147 10 14.5C10 16.9853 12.0147 19 14.5 19ZM14.5 12C14.7761 12 15 12.2239 15 12.5V14H16.5C16.7761 14 17 14.2239 17 14.5C17 14.7761 16.7761 15 16.5 15H15V16.5C15 16.7761 14.7761 17 14.5 17C14.2239 17 14 16.7761 14 16.5V15H12.5C12.2239 15 12 14.7761 12 14.5C12 14.2239 12.2239 14 12.5 14H14V12.5C14 12.2239 14.2239 12 14.5 12Z" fill="#212121"/>
</svg>

<svg xmlns="http://www.w3.org/2000/svg" width="20" height="20"><path d="M4 4a2 2 0 0 1 2-2h8a2 2 0 0 1 2 2v5.207A5.504 5.504 0 0 0 14.5 9a5.48 5.48 0 0 0-3.163 1H7.5a.5.5 0 0 0 0 1h2.757a5.48 5.48 0 0 0-1.254 3.675A5.476 5.476 0 0 0 10.257 18H6a2 2 0 0 1-2-2V4Zm8.5 2h-5a.5.5 0 0 0 0 1h5a.5.5 0 0 0 0-1Zm2 13a4.5 4.5 0 1 0 0-9 4.5 4.5 0 0 0 0 9Zm0-7a.5.5 0 0 1 .5.5V14h1.5a.5.5 0 0 1 0 1H15v1.5a.5.5 0 0 1-1 0V15h-1.5a.5.5 0 0 1 0-1H14v-1.5a.5.5 0 0 1 .5-.5Z"/></svg>
